X:1
T:Apheka, CMD
T:Apheka, CMD
T:Lowell Mason, 1841
T:Public Domain Courtesy of the Cyber Hymnal™
C:Lowell Mason, 1841
Z:Public Domain
Z:Courtesy of the Cyber Hymnal™
%%score ( 1 2 ) ( 3 4 )
L:1/8
Q:1/4=103
M:3/4
K:D
V:1 treble 
V:2 treble 
V:3 bass 
V:4 bass 
V:1
|: [FA]2 | [Fd]3 [Ac] [GB][FA] |1 [EA]>[EG] [DF]2 (EF) | G3 E FD | A4 :|2 [EA]2 || %6
 [Fd][FB] [EA]2 [D^G]2 | [CA]4 ([CE][DF]) | [EG]>[EG] [EG]2 [DF]2 | [DF][CE] [CE]2 ([DF][EG]) | %10
 ([FA]3 [GB]/[FA]/) [EG][DF] | [EG]2 ([CE][EG]) ([DF][FA]) | [Fd]3 [Ac] [GB][FA] | %13
 [EA]>[EG] ([DF][FA]) (dA) | [GB][Ge] [Fd]2 [Ec]2 | [Fd]4 ([DF][FA]) | [FA][EG] [DF]2 [CE]2 x | %17
 D4 |] %18
V:2
|: x2 | x6 |1 x4 EF | G3 E FD | A4 :|2 x2 || x6 | x6 | x6 | x6 | x6 | x6 | x6 | x4 A2 | x6 | x6 | %16
 x7 | D4 |] %18
V:3
|: [D,D]2 | [D,D]3 [D,D] [D,D][D,D] |1 [C,A,]>[C,A,] [D,A,]2 E,F, | G,3 E, F,D, | A,4 :|2 [C,E]2 || %6
 [B,,D][D,D] [E,C]2 [E,B,]2 | [A,,A,]4 A,,2 | A,,>A,, A,,2 A,,2 | A,,A,, A,,2 D,2 | D,3 D, C,D, | %11
 A,,4 [D,D]2 | [D,D]3 [D,D] [D,D][D,D] | [C,A,]>[C,A,] [D,A,]2 (A,D) | [G,B,][E,B,] A,2 [A,,A,]2 | %15
 [D,A,]4 [D,A,]2 | [D,A,][G,,B,] A,3 z G, | [D,F,]4 |] %18
V:4
|: x2 | x6 |1 x4 (E,F,) | G,3 E, F,D, | A,4 :|2 x2 || x6 | x6 | x6 | x6 | x6 | x6 | x6 | x4 F,2 | %14
 x2 A,2 x2 | x6 | x2 A,,2 A,,2 x | x4 |] %18

